img/logos/dart.svg

<svg width="256" height="256" viewBox="0 0 256 256" xmlns="http://www.w3.org/2000/svg" preserveAspectRatio="xMinYMin meet"><path d="M70.534 69.696L53.988 53.15l.07 119.6.198 5.59c.082 2.63.57 5.598 1.384 8.674l131.104 46.23 32.772-14.52.012-.04L70.534 69.696" fill="#00D2B8"/><path d="M55.64 187.014l.008.008c-.008-.054-.036-.114-.036-.17 0 .056.008.108.028.162zm163.876 31.71l-32.772 14.52-131.096-46.222c2.504 9.608 8.048 20.408 14.014 26.314l42.784 42.54 95.13.124 11.952-37.316-.012.04z" fill="#55DDCA"/><path d="M3.034 130.116c-4.236 4.522-2.132 13.85 4.688 20.722L37.14 180.5l18.5 6.514c-.814-3.076-1.302-6.044-1.384-8.674l-.198-5.59-.07-119.6-50.954 76.966z" fill="#0081C6"/><path d="M187.82 54.686c-3.076-.786-6.026-1.272-8.7-1.356l-5.908-.204-119.224.016 165.556 165.542h.014l14.54-32.804L187.82 54.686" fill="#0079B3"/><path d="M187.67 54.654c.064.014.114.032.156.038l-.006-.006c-.036-.018-.086-.018-.15-.032zm26.448 14.078c-6.008-6.058-16.666-11.564-26.292-14.04l46.272 131.188-14.54 32.804h-.014l35.532-11.348.076-97.416-41.034-41.188z" fill="#00A4E4"/><path d="M181.338 36.298L151.684 6.862c-6.858-6.794-16.19-8.908-20.7-4.684L53.988 53.142l119.224-.016 5.908.204c2.674.084 5.624.57 8.7 1.356l-6.482-18.388z" fill="#00D2B8"/></svg>

<?xml version="1.0" encoding="UTF-8" standalone="no"?>
<svg width="256px" height="256px" viewBox="0 0 256 256" version="1.1" xmlns="http://www.w3.org/2000/svg" xmlns:xlink="http://www.w3.org/1999/xlink" preserveAspectRatio="xMinYMin meet">
	<g>
		<path d="M70.534,69.696 L53.988,53.15 L54.058,172.75 L54.256,178.34 C54.338,180.97 54.826,183.938 55.64,187.014 L186.744,233.244 L219.516,218.724 L219.528,218.684 L70.534,69.696" fill="#00D2B8"></path>
		<path d="M55.64,187.014 L55.648,187.022 C55.64,186.968 55.612,186.908 55.612,186.852 C55.612,186.908 55.62,186.96 55.64,187.014 L55.64,187.014 Z M219.516,218.724 L186.744,233.244 L55.648,187.022 C58.152,196.63 63.696,207.43 69.662,213.336 L112.446,255.876 L207.576,256 L219.528,218.684 L219.516,218.724 L219.516,218.724 Z" fill="#55DDCA"></path>
		<path d="M3.034,130.116 C-1.202,134.638 0.902,143.966 7.722,150.838 L37.14,180.5 L55.64,187.014 C54.826,183.938 54.338,180.97 54.256,178.34 L54.058,172.75 L53.988,53.15 L3.034,130.116 Z" fill="#0081C6"></path>
		<path d="M187.82,54.686 C184.744,53.9 181.794,53.414 179.12,53.33 L173.212,53.126 L53.988,53.142 L219.544,218.684 L219.558,218.684 L234.098,185.88 L187.82,54.686" fill="#0079B3"></path>
		<path d="M187.67,54.654 C187.734,54.668 187.784,54.686 187.826,54.692 L187.82,54.686 C187.784,54.668 187.734,54.668 187.67,54.654 L187.67,54.654 Z M214.118,68.732 C208.11,62.674 197.452,57.168 187.826,54.692 L234.098,185.88 L219.558,218.684 L219.544,218.684 L255.076,207.336 L255.152,109.92 L214.118,68.732 L214.118,68.732 Z" fill="#00A4E4"></path>
		<path d="M181.338,36.298 L151.684,6.862 C144.826,0.068 135.494,-2.046 130.984,2.178 L53.988,53.142 L173.212,53.126 L179.12,53.33 C181.794,53.414 184.744,53.9 187.82,54.686 L181.338,36.298 L181.338,36.298 Z" fill="#00D2B8"></path>
	</g>
</svg>
